icons/file-17.svg

<svg width="16" height="17" viewBox="0 0 16 17" fill="none" xmlns="http://www.w3.org/2000/svg">
<path fill-rule="evenodd" clip-rule="evenodd" d="M4.59995 3.36638C4.54691 3.36638 4.49604 3.38745 4.45853 3.42496C4.42102 3.46247 4.39995 3.51334 4.39995 3.56638V12.7664C4.39995 12.8768 4.48955 12.9664 4.59995 12.9664H11.4C11.453 12.9664 11.5039 12.9453 11.5414 12.9078C11.5789 12.8703 11.6 12.8194 11.6 12.7664V6.96638H9.39995C9.02865 6.96638 8.67255 6.81889 8.41 6.55633C8.14745 6.29378 7.99995 5.93769 7.99995 5.56638V3.36638H4.59995ZM9.19995 3.81438V5.56638C9.19995 5.67678 9.28955 5.76638 9.39995 5.76638H11.152L9.19995 3.81438ZM3.19995 3.56638C3.19995 2.79358 3.82715 2.16638 4.59995 2.16638H8.66875C9.03995 2.16638 9.39595 2.31358 9.65835 2.57678L12.3896 5.30798C12.6528 5.57038 12.8 5.92638 12.8 6.29758V12.7664C12.8 13.1377 12.6524 13.4937 12.3899 13.7563C12.1273 14.0189 11.7712 14.1664 11.4 14.1664H4.59995C4.22865 14.1664 3.87255 14.0189 3.61 13.7563C3.34745 13.4937 3.19995 13.1377 3.19995 12.7664V3.56638Z" fill="#272431"/>
</svg>

<svg xmlns="http://www.w3.org/2000/svg" width="16" height="17" viewBox="0 0 16 17"><path fill-rule="evenodd" d="M4.6 3.366a.2.2 0 00-.2.2v9.2c0 .11.09.2.2.2h6.8a.2.2 0 00.2-.2v-5.8H9.4a1.4 1.4 0 01-1.4-1.4v-2.2H4.6zm4.6.448v1.752c0 .11.09.2.2.2h1.752L9.2 3.814zm-6-.248a1.4 1.4 0 011.4-1.4h4.069c.37 0 .727.148.99.41l2.73 2.732c.264.262.411.618.411.99v6.468a1.4 1.4 0 01-1.4 1.4H4.6a1.4 1.4 0 01-1.4-1.4v-9.2z"/></svg>
